X:1
T: The Glories of ``The Star''
C:J. Scott Skinner
R:Strathspey
Q: 128
K:Eb
M:4/4
L:1/16
|:B,2|E3B, G,3B, EFGA B3E|D3B, A3B, G3B, FB3|E3B, G,3B, EFGA B2e2|cBAG F2EF E6 B,2|
E3B, G,3B, EFGA B3E|D3B, A3B, G3B, FB3|E3B, G,3B, EFGA B2e2|cBAG F2EF E6 B2|
g3f e3d cBcd e3G|A3B c3B AGFE F3B|g3f e3d cBcd e3B|cBAG GFEF E4-E3B|
g3f e3d cBcd e3G|A3B cBAG FEDC B,3A,|G,3A, B,2CD EFGA B2e2|cBAG GFEF E6:|
